img/servicios-fotoproducto-icon.svg

<svg width="70" height="55" viewBox="0 0 70 55" fill="none" xmlns="http://www.w3.org/2000/svg">
<g clip-path="url(#clip0_486_38)">
<path d="M16.5386 11.9378C15.8337 6.38108 9.06946 6.07427 8.24517 9.04014L7.00673 14.5505L1.64284 15.8228C-1.24418 16.6696 -0.944194 23.6186 4.4635 24.3427L8.51728 24.8868C13.925 25.6109 17.773 21.6591 17.0668 16.1037L16.5386 11.9378V11.9378ZM41.7492 37.8344C47.1569 38.5585 47.4556 45.5102 44.5699 46.3556L39.206 47.6279L37.9662 53.1397C37.1433 56.1042 30.3777 55.796 29.6729 50.2406L29.1446 46.0747C28.4397 40.5193 32.2864 36.5662 37.6941 37.2917L41.7492 37.8344Z" fill="#C3B214"/>
<path d="M39.3587 37.514L37.6942 37.2904C32.2865 36.5663 28.4385 40.5181 29.1446 46.0735L29.2601 46.983C31.4131 46.6176 33.8395 45.2976 35.9155 43.1649C37.6278 41.4085 38.7985 39.404 39.3587 37.514V37.514ZM8.05408 24.8242L8.51733 24.8869C13.925 25.611 17.7731 21.6592 17.0669 16.1038L16.9089 14.8629C15.1608 15.4725 13.329 16.6411 11.7123 18.3033C9.73452 20.3338 8.47751 22.6928 8.05408 24.8242V24.8242Z" fill="#C3B214"/>
<path d="M23.8139 45.2594C31.622 45.2594 37.9517 38.7568 37.9517 30.7355C37.9517 22.7141 31.622 16.2115 23.8139 16.2115C16.0058 16.2115 9.67615 22.7141 9.67615 30.7355C9.67615 38.7568 16.0058 45.2594 23.8139 45.2594Z" fill="#C3B214"/>
<path d="M23.7754 30.2949C24.293 34.308 22.9365 39.4857 20.3335 42.6929C21.4485 43.0338 22.6166 43.2125 23.8125 43.2125C24.7828 43.2125 25.7332 43.0829 26.6531 42.8566C27.4004 39.3302 26.9929 34.7744 23.7754 30.2949ZM23.7754 30.2949C28.2977 31.1608 32.0475 34.7758 32.7736 39.1366C34.5252 37.1826 35.6175 34.7011 35.8889 32.0594C33.4187 29.4835 29.3822 27.6849 23.7754 30.2949ZM23.7754 30.2949C25.1678 27.2008 29.7605 24.3795 34.1766 24.2431C33.6769 23.3961 33.0812 22.6129 32.4019 21.91C31.4113 20.8968 30.2565 20.0685 28.9893 19.4623C25.8394 21.1545 23.0798 24.4354 23.7754 30.2949V30.2949Z" fill="#0E0D0F"/>
<path d="M23.831 30.3522C20.1011 28.3327 17.7557 23.4796 18.7645 19.401C17.4474 20.0123 16.2483 20.8622 15.2244 21.9101C14.4976 22.6625 13.8677 23.5076 13.3501 24.4246C15.0585 27.0959 18.3331 29.6459 23.831 30.3522ZM23.7195 30.3522C20.3082 32.4754 15.4487 33.6127 11.829 32.6472C12.1455 34.7981 13.009 36.825 14.3324 38.5231C17.4836 37.5549 21.0555 35.1099 23.7195 30.3522Z" fill="#0E0D0F"/>
<path d="M64.6652 12.3546C68.5586 11.8334 68.7736 6.83151 66.6955 6.22198L62.8346 5.3062L61.9432 1.33983C61.3498 -0.795001 56.4809 -0.573175 55.9736 3.42559L55.5924 6.42319C55.085 10.422 57.8539 13.2674 61.7463 12.7452L64.6652 12.3546V12.3546ZM46.5205 30.9968C46.0132 34.9956 41.1424 35.2164 40.55 33.0826L39.6586 29.1162L35.7967 28.1995C33.7196 27.5909 33.9355 22.588 37.8279 22.0669L40.7468 21.6762C44.6393 21.155 47.4091 23.9995 46.9008 27.9983L46.5205 30.9968Z" fill="#C3B214" fill-opacity="0.74"/>
<path d="M46.745 29.2292L46.9017 27.9983C47.409 23.9995 44.6401 21.1541 40.7477 21.6763L40.1104 21.7617C40.3665 23.3537 41.2913 25.1479 42.7856 26.6831C44.0162 27.9492 45.4207 28.8149 46.745 29.2292V29.2292ZM55.6363 6.08069L55.5923 6.42324C55.085 10.422 57.8538 13.2675 61.7463 12.7453L62.6157 12.6285C62.1886 11.3358 61.3698 9.9813 60.2052 8.78579C58.7825 7.32331 57.1296 6.3938 55.6363 6.08069V6.08069Z" fill="#C3B214" fill-opacity="0.74"/>
<path d="M41.3182 17.7345C41.3182 23.5082 45.8743 28.1888 51.4945 28.1888C57.1148 28.1888 61.6709 23.5082 61.6709 17.7345C61.6709 11.9607 57.1148 7.28015 51.4945 7.28015C45.8743 7.28015 41.3182 11.9607 41.3182 17.7345Z" fill="#C3B214" fill-opacity="0.74"/>
<path d="M51.8028 17.7059C48.991 18.0887 45.3632 17.0856 43.116 15.1608C42.8771 15.9853 42.752 16.849 42.752 17.7334C42.752 18.4509 42.8427 19.1536 43.0014 19.8338C45.4721 20.3864 48.6642 20.0851 51.8028 17.7059ZM51.8028 17.7059C51.1961 21.05 48.6633 23.8228 45.6078 24.3597C46.9769 25.6549 48.7156 26.4627 50.5665 26.6633C52.3713 24.8367 53.6315 21.8519 51.8028 17.7059ZM51.8028 17.7059C53.9707 18.7355 55.9475 22.1316 56.0431 25.3972C56.6366 25.0277 57.1853 24.5872 57.6778 24.0849C58.3877 23.3523 58.968 22.4984 59.3928 21.5613C58.2071 19.2322 55.9083 17.1916 51.8028 17.7059V17.7059Z" fill="#0E0D0F"/>
<path d="M51.7627 17.7472C53.1777 14.9891 56.5781 13.2547 59.4358 14.0007C59.0074 13.0268 58.412 12.1401 57.6778 11.383C57.1506 10.8455 56.5585 10.3798 55.916 9.99703C54.0443 11.2603 52.2576 13.6817 51.7627 17.7472ZM51.7627 17.6648C50.2751 15.1422 49.4782 11.5488 50.1547 8.87219C48.6477 9.10623 47.2275 9.7448 46.0377 10.7234C46.7161 13.0535 48.4292 15.6948 51.7627 17.6648Z" fill="#0E0D0F"/>
</g>
<defs>
<clipPath id="clip0_486_38">
<rect width="70" height="55" fill="white"/>
</clipPath>
</defs>
</svg>

<svg width="70" height="55" fill="none" xmlns="http://www.w3.org/2000/svg"><g clip-path="url(#a)"><path d="M16.539 11.938c-.705-5.557-7.47-5.864-8.294-2.898l-1.238 5.51-5.364 1.273c-2.887.847-2.587 7.796 2.82 8.52l4.054.544c5.408.724 9.256-3.228 8.55-8.783l-.528-4.166zm25.21 25.896c5.408.724 5.707 7.676 2.82 8.522l-5.363 1.272-1.24 5.512c-.823 2.964-7.588 2.656-8.293-2.9l-.528-4.165c-.705-5.556 3.141-9.509 8.55-8.783l4.054.542z" fill="#C3B214"/><path d="m39.359 37.514-1.665-.224c-5.408-.724-9.256 3.228-8.55 8.784l.116.909c2.153-.365 4.58-1.685 6.655-3.818 1.713-1.757 2.883-3.761 3.444-5.651zM8.054 24.824l.463.063c5.408.724 9.256-3.228 8.55-8.783l-.158-1.241c-1.748.61-3.58 1.778-5.197 3.44-1.977 2.03-3.234 4.39-3.658 6.521z" fill="#C3B214"/><path d="M23.814 45.26c7.808 0 14.138-6.503 14.138-14.524 0-8.022-6.33-14.524-14.138-14.524S9.676 22.713 9.676 30.735c0 8.022 6.33 14.524 14.138 14.524z" fill="#C3B214"/><path d="M23.775 30.295c.518 4.013-.838 9.19-3.441 12.398 1.114.34 2.283.52 3.479.52.97 0 1.92-.13 2.84-.356.747-3.527.34-8.083-2.878-12.562zm0 0c4.523.866 8.273 4.48 8.999 8.842a12.52 12.52 0 0 0 3.115-7.078c-2.47-2.575-6.507-4.374-12.114-1.764zm0 0c1.393-3.094 5.986-5.916 10.402-6.052-.5-.847-1.096-1.63-1.775-2.333a12.043 12.043 0 0 0-3.413-2.448c-3.15 1.692-5.91 4.973-5.214 10.833z" fill="#0E0D0F"/><path d="M23.831 30.352c-3.73-2.02-6.075-6.872-5.066-10.951a12.036 12.036 0 0 0-3.54 2.51 12.37 12.37 0 0 0-1.875 2.514c1.709 2.67 4.983 5.22 10.481 5.927zm-.111 0c-3.412 2.123-8.271 3.26-11.891 2.295a12.526 12.526 0 0 0 2.503 5.876c3.152-.968 6.723-3.413 9.387-8.17z" fill="#0E0D0F"/><path d="M64.665 12.355c3.894-.522 4.109-5.523 2.03-6.133l-3.86-.916-.892-3.966c-.593-2.135-5.462-1.913-5.97 2.086l-.38 2.997c-.508 3.999 2.26 6.844 6.153 6.322l2.92-.39zM46.52 30.997c-.507 3.999-5.378 4.22-5.97 2.086l-.891-3.967-3.862-.916c-2.077-.61-1.861-5.612 2.03-6.133l2.92-.39c3.892-.522 6.662 2.323 6.154 6.321l-.38 2.999z" fill="#C3B214" fill-opacity=".74"/><path d="m46.745 29.23.157-1.232c.507-3.998-2.262-6.844-6.154-6.322l-.638.086c.257 1.592 1.181 3.386 2.676 4.921 1.23 1.266 2.635 2.132 3.959 2.546zm8.891-23.15-.044.343c-.507 3.999 2.262 6.845 6.154 6.322l.87-.116c-.427-1.293-1.246-2.648-2.41-3.843-1.424-1.463-3.076-2.392-4.57-2.705z" fill="#C3B214" fill-opacity=".74"/><path d="M41.318 17.735c0 5.773 4.556 10.454 10.177 10.454 5.62 0 10.176-4.68 10.176-10.454 0-5.774-4.556-10.455-10.176-10.455s-10.177 4.68-10.177 10.454z" fill="#C3B214" fill-opacity=".74"/><path d="M51.803 17.706c-2.812.383-6.44-.62-8.687-2.545a9.233 9.233 0 0 0-.364 2.572c0 .718.09 1.42.25 2.1 2.47.553 5.662.252 8.8-2.127zm0 0c-.607 3.344-3.14 6.117-6.195 6.654a8.558 8.558 0 0 0 4.959 2.303c1.804-1.826 3.065-4.811 1.236-8.957zm0 0c2.168 1.03 4.145 4.426 4.24 7.691a8.814 8.814 0 0 0 1.635-1.312 8.913 8.913 0 0 0 1.715-2.524c-1.186-2.329-3.485-4.37-7.59-3.855z" fill="#0E0D0F"/><path d="M51.763 17.747c1.415-2.758 4.815-4.492 7.673-3.746a8.915 8.915 0 0 0-1.758-2.618 8.72 8.72 0 0 0-1.762-1.386c-1.872 1.263-3.658 3.685-4.153 7.75zm0-.082c-1.488-2.523-2.285-6.116-1.608-8.793a8.546 8.546 0 0 0-4.117 1.851c.678 2.33 2.391 4.972 5.725 6.942z" fill="#0E0D0F"/></g><defs><clipPath id="a"><path fill="#fff" d="M0 0h70v55H0z"/></clipPath></defs></svg>
